X: 22
T: Praeludia organi op. 5 – Andantino
C: Franciszek Walczyński
%%abc-version 2.0
%%abcx-abcm2ps-target-version 5.9.1 (29 Sep 2008)
%%abc-creator hum2abc beta
%%abcx-conversion-date 2021/10/04 07:38:41
%%abc-edited-by Andrzej Borzym
%%abc-edited-by Krzysztof Stępień
%%abcx-initial-encoding-date 2021-07-26
%%humdrum-veritas 2915136738
%%humdrum-veritas-data 864905349
%%linebreak <none>
%%barnumbers 0
L: 1/8
M: 3/4
N: Derived from pl-kozmzk--mzk-m-159--011_walczynski-franciszek--praeludia-organi-op-5-andantino.krn
Q: "11. Andantino."
%%staves {1 2}
V: 1 clef=treble
V: 2 clef=bass
K: B
[V:1] z6 & z6 | 
[V:2] B,A,C.B,.A,.G, | 
[V:1] z6 & DCE.D.C.B, | 
[V:2] F,E,G,.F,.E,.D, | 
[V:1] BAc.B.A.G & E2F2^^C2 | 
[V:2] C,2D,2^E,2 | 
[V:1] FED4 & A,2-A,CB,A, | 
[V:2] F,2^^F,A,G,F, | 
[V:1] D4G2- & B,4-B,2 | 
[V:2] G,^^F,G,.^F,.E,.D, | 
[V:1] G4A2 & EDF.E.D.C | 
[V:2] C,4^^F,,2 | 
[V:1] BAc.B.A.G & D4^^C2 | 
[V:2] G,,4^E,,2 | 
[V:1] F^E=E^D- D.C & D=DC.B,.F,.E, | 
[V:2] F,,6 | 
[V:1] !fermata!B,6 & D,6 |]  
[V:2] !fermata!B,,6 |]  


